packages/astro-components-stencil/src/icons/subdirectory-arrow-right.svg

<svg xmlns="http://www.w3.org/2000/svg" viewBox="0 0 24 24"><g xmlns="http://www.w3.org/2000/svg" id="subdirectory-arrow-right" fill-rule="nonzero">
            <path d="M20.29 15.71l-4.58 4.58c-.39.39-1.03.39-1.42 0-.39-.39-.39-1.03 0-1.42L17.17 16H7c-.55 0-1-.45-1-1V5c0-.55.45-1 1-1s1 .45 1 1v9h9.17l-2.88-2.87c-.39-.39-.39-1.03 0-1.42.39-.39 1.03-.39 1.42 0l4.58 4.58c.39.39.39 1.03 0 1.42z"/>
        </g></svg>

<svg width="24" height="24" viewBox="0 0 24 24" fill="none" xmlns="http://www.w3.org/2000/svg">
<path d="M20.29 15.71L15.71 20.29C15.32 20.68 14.68 20.68 14.29 20.29C13.9 19.9 13.9 19.26 14.29 18.87L17.17 16H7C6.45 16 6 15.55 6 15V5C6 4.45 6.45 4 7 4C7.55 4 8 4.45 8 5V14H17.17L14.29 11.13C13.9 10.74 13.9 10.1 14.29 9.71C14.68 9.32 15.32 9.32 15.71 9.71L20.29 14.29C20.68 14.68 20.68 15.32 20.29 15.71Z" fill="black"/>
</svg>
